symbols/web/elevator/materialsymbolssharp/elevator_wght500grad200_24px.svg

<svg xmlns="http://www.w3.org/2000/svg" height="24" width="24"><path d="M6.825 18.375h3.55v-4h1v-5.05h-5.55v5.05h1Zm1.775-9.7q.625 0 1.075-.45.45-.45.45-1.075 0-.65-.45-1.088-.45-.437-1.075-.437-.65 0-1.087.437-.438.438-.438 1.088 0 .625.438 1.075.437.45 1.087.45Zm3.75 2.6h5.975l-2.975-4.8Zm3 6.25 2.975-4.8H12.35ZM2.25 21.75V2.25h19.5v19.5Zm2.825-2.825h13.85V5.075H5.075Zm0 0V5.075v13.85Z"/></svg>

<svg xmlns="http://www.w3.org/2000/svg" height="24" width="24"><path d="M6.825 18.375H10.375V14.375H11.375V9.325H5.825V14.375H6.825ZM8.6 8.675Q9.225 8.675 9.675 8.225Q10.125 7.775 10.125 7.15Q10.125 6.5 9.675 6.062Q9.225 5.625 8.6 5.625Q7.95 5.625 7.513 6.062Q7.075 6.5 7.075 7.15Q7.075 7.775 7.513 8.225Q7.95 8.675 8.6 8.675ZM12.35 11.275H18.325L15.35 6.475ZM15.35 17.525 18.325 12.725H12.35ZM2.25 21.75V2.25H21.75V21.75ZM5.075 18.925H18.925V5.075H5.075ZM5.075 18.925V5.075V18.925Z"/></svg>
